X:1
T: The Cambro Britons 2
N:
C:
S:
A:
O:
R:
M:2/4
K:G
I:speed 112
K:G
M:2/4
L:1/16
d2 |\
B2 d2 c2 e2 | d2 B2 A2 G2 | G2 g2 d2 B2 | A2 A2 A2 d2 |\
B2 d2 c2 e2 | d2 B2 A2 G2 | B2 d2 A2 d2 | B2 G2 G2 d2 |
B2 d2 c2 e2 | d2 B2 A2 G2 | G2 g2 d2 B2 | A2 A2 A2 d2 |\
B2 d2 c2 e2 | d2 B2 A2 G2 | B2 d2 A2 d2 | B2 G2 G2 d2 |
g4 d2 B2 | g4 d2 B2 | G2 g2 d2 B2 | A2 A2 A2 d2 |\
g4 d2 B2 | g4 d2 B2 | B2 d2 A2 d2 | B2 G2 G2 d2 |
g4 d2 B2 | g4 d2 B2 | G2 g2 d2 B2 | A2 A2 A2 d2 |\
g4 d2 B2 | g4 d2 B2 | B2 d2 A2 d2 | B2 G2 G2 |]
